web/images/icons/plus-button.svg

<svg height="32" viewBox="0 0 32 32" width="32" xmlns="http://www.w3.org/2000/svg"><g fill="#2cd6ca"><path d="m15.529 31.059c-8.563 0-15.529-6.967-15.529-15.53s6.966-15.529 15.529-15.529 15.529 6.966 15.529 15.529c.001 8.563-6.966 15.53-15.529 15.53zm0-29.285c-7.585 0-13.755 6.171-13.755 13.755s6.17 13.754 13.755 13.754c7.584 0 13.754-6.17 13.754-13.754s-6.17-13.755-13.754-13.755z"/><path d="m21.652 16.416h-12.246c-.49 0-.888-.396-.888-.887 0-.49.397-.888.888-.888h12.246c.49 0 .887.398.887.888 0 .491-.396.887-.887.887z"/><path d="m15.529 22.539c-.49 0-.888-.397-.888-.887v-12.246c0-.49.398-.888.888-.888s.887.398.887.888v12.246c0 .491-.396.887-.887.887z"/></g></svg>

<?xml version="1.0" encoding="UTF-8"?>
<svg width="32px" height="32px" viewBox="0 0 32 32" version="1.1" xmlns="http://www.w3.org/2000/svg" xmlns:xlink="http://www.w3.org/1999/xlink">
    <!-- Generator: Sketch 51.3 (57544) - http://www.bohemiancoding.com/sketch -->
    <title>plus-button</title>
    <desc>Created with Sketch.</desc>
    <defs></defs>
    <g id="Page-1" stroke="none" stroke-width="1" fill="none" fill-rule="evenodd">
        <g id="plus-button" fill="#2CD6CA" fill-rule="nonzero">
            <path d="M15.529,31.059 C6.966,31.059 0,24.092 0,15.529 C0,6.966 6.966,0 15.529,0 C24.092,0 31.058,6.966 31.058,15.529 C31.059,24.092 24.092,31.059 15.529,31.059 Z M15.529,1.774 C7.944,1.774 1.774,7.945 1.774,15.529 C1.774,23.113 7.944,29.283 15.529,29.283 C23.113,29.283 29.283,23.113 29.283,15.529 C29.283,7.945 23.113,1.774 15.529,1.774 Z" id="Shape"></path>
            <path d="M21.652,16.416 L9.406,16.416 C8.916,16.416 8.518,16.02 8.518,15.529 C8.518,15.039 8.915,14.641 9.406,14.641 L21.652,14.641 C22.142,14.641 22.539,15.039 22.539,15.529 C22.539,16.02 22.143,16.416 21.652,16.416 Z" id="Shape"></path>
            <path d="M15.529,22.539 C15.039,22.539 14.641,22.142 14.641,21.652 L14.641,9.406 C14.641,8.916 15.039,8.518 15.529,8.518 C16.019,8.518 16.416,8.916 16.416,9.406 L16.416,21.652 C16.416,22.143 16.02,22.539 15.529,22.539 Z" id="Shape"></path>
        </g>
    </g>
</svg>
